!!!OTL: 623. Wiegenlied.
!!!COM: W. A. Mozart
!!!ODT: 1828
!!!ARE: Europa, Mitteleuropa, Deutschland
!!!SCT: B0623
!!!TXL: @@DE
!!!YEM: Copyright 1995, estate of Helmut Schaffrath.
**kern	**text
*ICvox	*
*Ivox	*
*clefG2	*
*M6/8	*
*k[b-]	*
*F:	*
=1	=1
!LO:TX:a:t=Andante	!
{8a	Schla-
8b-	-fe,
8a	mein
8g	Prinʒchen!
8f	.
8g	Es
=2	=2
4f	ruhn
8r	.
4r	.
8r}	.
=3	=3
{8f	Schäf-
8b-	-chen
8b-	und
8b-	Vö-
8cc	-gel-
8dd	-chen
=4	=4
4cc	nun,
8r	.
4r	.
8r}	.
=5	=5
{8g	Gar-
8f#	-ten
8g	und
8g	Wie-
8f#	-ſe
8g	ver-
=6	=6
4a	-ſtummt,
8r	.
4r	.
8r}	.
=7	=7
{8a	auch
8g	nicht
8a	ein
8b-	Bien-
8a	-chen
8b-	mehr
=8	=8
4cc	ſummt.
8r	.
4r	.
8r}	.
=9	=9
{8dd	Lu-
8cc#	-na
8dd	mit
8dd	ſil-
8cc#X	-ber-
8dd	-nem
=10	=10
4ff	Schein
8r	.
4r	.
8r}	.
=11	=11
{8cc	guk-
8cc	-kel
8cc	ʒum
8cc	Fen-
8bn	-ſter
8cc	her-
=12	=12
4ff	-ein.
8r	.
4r	.
8r}	.
=13	=13
{8b-	Schla-
8cc	-ſe
8b-	beim
8a	ſil-
8b-	-ber-
8cc	-nen
=14	=14
4g	Schein,
8r	.
4r	.
8r}	.
=15	=15
{8a	ſchla-
8b-	-ſe,
8a	mein
8g	Prinʒchen,
8f	.
8g	ſchlaf'
=16	=16
4f	ein!
8r	.
4r	.
8r}	.
!LO:TX:a:t=P:Nachspiel. not encoded:problem	!
==	==
!!!AGN: Kinder -, Wiegen - Lied
!!!GTL: Kinderlieder
!!!ONB: ESAC (Essen Associative Code) Database: BOEHME
!!!AMT: compound duple
!!!AIN: vox
!!!EED: Helmut Schaffrath
!!!EEV: 1.0
!!Angeblich v. Mozart 1791 komponirt. Mel. nach Nissen. 1828.
!!@@COMMENT:"Dies Wiegenlied ſoll von Moʒart für ſeinen jüngſten Sohn Wolfgang (geb. 7. Juni 1791,
!!im letʒten Lebensjahre komponirt ſein, weil es in "Moʒart's Leben" von Niſſen 1828, Anhang 20
!!ſteht. Doch für Moʒarts Urheberſchaft fehlen ſchlagende Beweiſe. Abgeſehen von einem Satʒfehler,
!!den man Moʒart nicht ʒutrauen kann, taucht das Lied mit dieſer Angabe erſt 37 Jahre nach
!!Moʒart's Tode auf in einem Buche, das Moʒaris Wittwe erſt ʒwei Jahre nach ibres ʒweiten
!!Mannes Niſſens) Tode herausgab. Dort iſt aber das Lied nicht nach einer Handſchrift Moʒart's,
!!ſondern nach einer Abſchriſt" aufgenommen, und ſolche Abſchriften mit Muſikſtücken, die Moʒart
!!untergeſchoben wurden, gabs damals ſo manche! Darum kein Moʒartforſcher wie O. Jahn,
!!v. Köchel, an die Aechtheit dieſes Stückes glaubt.[...]"
!!@@END:
!!!URL-scan: https://archive.org/details/BoehmeVtLieder1895/page/n491/mode/2up
!!!ENC: Anna Maria Matuszewska
!!!EEV: 2024/15/07
*-	*-
